X:265
T:The Third Eyebrow
C: Robin Kessinger
N:From the CD "A Compilation" Transcribed by Mike Stangeland
L:1/8
Q:1/4=224
M:4/4
K:C
z8 |: "Am"[c2E2A,2] [e2c2E2A,2] "E7"[dEB,][e2d2E2B,2]"Am"[cEA,] | z[ecEA,] z[ecEA,] "E7"[d2E2B,2] [e2d2E2B,2] | 
"Am"[c2E2A,2] [e2c2E2A,2] "E7"[dEB,][e2d2E2B,2]"Am"[cEA,] | z[ecEA,] z[ecEA,] "E7"[d2E2B,2] [e2d2E2B,2] :|: "Am"AB cd ea ^ga | 
ed ce "Dm"fe df | "Am"ed cB AB cA | "E7"Bc dB cA B^G | "Am"AB cd ea ^ga | ed ce "Dm"fe df | 
"Am"ed cB "Em"A^G BG |1 A4 "Em"E4 :|2 A4 [c4E4A,4] |: "Dm"fe df ze df | "Am"ed ce zd c2 | 
"E7"de ef ed cB | "Am"Ac Bd ce de | "Dm"fe df ze df | "Am"ed ce zg z2 | "E7"de ef ed cB | 
"Am"A4 [e4c4E4A,4] :|: "E7"E^G, B,G, "Am"A,C EC | "G"B,C DB, "C"CE AE | "Dm"DF AF "Am"A,C EC | 
"E7"E^G, B,G, "Am"A,2 [e2c2E2A,2] :|: "F"[a2f2] [af][af] z[af] [a2f2] | [c'2f2] [b2f2] [af][af] [a2f2] | 
"Am"[a2e2] [ae][ae] z[ae] [a2e2] | [c'2e2] [b2e2] [ae][be] [a2e2] | "E7"[^g2e2] ga gf ef | 
ed cd ed cB |1 A3c B3d | "C"ce d"Dm"f ec' a2 :|2 A3B cd ea | "E7"^ga e2 [e4d4E4B,4] | 
 

